X: 1
T: New High Level, The
M: 4/4
L: 1/8
R: hornpipe
K: Gmaj
G2DG B2GB|d^ced =cBAG|F2DF A2FA|defe d^c=cA|
G2DG B2GB|d^ced =cBAG|FGAB ceFA|1 G2GF G2D2:|2 G2GF G2AG||
K:D
|:FAdA fAdA|FAdA fAdA|GBdB gBdB|GBdB gBdB|
FAdA fAdA|FAdA fAdA|efge cABc|1 dcde d2AG:|2 dcde dc=cA||
